build/img/exp-logo-2.svg

<svg width="120" height="26" viewBox="0 0 120 26" fill="none" xmlns="http://www.w3.org/2000/svg">
<g clip-path="url(#clip0_1116_235)">
<path fill-rule="evenodd" clip-rule="evenodd" d="M16.7069 6.65779H8.37312V0.636719H0V25.6238H16.7069C18.9077 25.6238 20.6976 23.8473 20.6976 21.6622V10.6252C20.6976 8.44002 18.9077 6.65779 16.7069 6.65779ZM8.35296 20.085H12.3312V12.1957H8.35296V20.0845V20.085Z" fill="black"/>
<path fill-rule="evenodd" clip-rule="evenodd" d="M116.015 6.66333H103.332C101.138 6.66333 99.3535 8.43983 99.3535 10.6312V21.662C99.3535 23.8471 101.137 25.6294 103.332 25.6294H116.015C118.21 25.6294 120 23.8471 120 21.662V10.6312C120 8.43983 118.21 6.66333 116.015 6.66333ZM107.688 20.0848H111.659V12.1955H107.688V20.0843V20.0848ZM57.4663 20.0848H53.489V12.1955H57.4663L57.4869 15.0416L65.7933 15.0339V10.6245C65.7933 8.43935 64.0169 6.66285 61.8161 6.66285H49.133C46.9317 6.66285 45.1553 8.43935 45.1553 10.6245V21.662C45.1553 23.8471 46.9317 25.6236 49.133 25.6236H61.8161C64.0169 25.6236 65.7933 23.8471 65.7933 21.662V17.2392H57.4869L57.4663 20.0843V20.0848ZM67.3116 25.6236H75.6717V6.66333H67.3116V25.6236ZM35.2764 25.6236H43.6231V6.6576H35.2764V25.6236ZM34.0697 6.6576H30.5825V0.650391H22.2021V21.6825C22.2021 23.8667 23.9853 25.6365 26.1794 25.6365H34.0692V20.2502H30.582V11.9187H34.0692V6.6576H34.0697ZM85.4969 25.6236V12.1955H89.4751V25.6231H97.8031V10.625C97.8031 8.43983 96.0257 6.66333 93.8249 6.66333H77.1708V25.6236H85.4969Z" fill="black"/>
</g>
<defs>
<clipPath id="clip0_1116_235">
<rect width="120" height="25" fill="white" transform="translate(0 0.636719)"/>
</clipPath>
</defs>
</svg>

<svg width="120" height="26" viewBox="0 0 120 26" fill="none" xmlns="http://www.w3.org/2000/svg"><g clip-path="url(#clip0_1116_235)" fill-rule="evenodd" clip-rule="evenodd" fill="#000"><path d="M16.707 6.658H8.373V.637H0v24.987h16.707c2.2 0 3.99-1.777 3.99-3.962V10.625c0-2.185-1.79-3.967-3.99-3.967zM8.353 20.085h3.978v-7.89H8.353v7.89zM116.015 6.663h-12.683a3.975 3.975 0 00-3.978 3.968v11.031a3.978 3.978 0 003.978 3.967h12.683c2.195 0 3.985-1.782 3.985-3.967v-11.03c0-2.192-1.79-3.969-3.985-3.969zm-8.327 13.422h3.971v-7.89h-3.971v7.89zm-50.222 0H53.49v-7.89h3.977l.02 2.847 8.307-.008v-4.41a3.969 3.969 0 00-3.977-3.961H49.133a3.969 3.969 0 00-3.978 3.961v11.038a3.969 3.969 0 003.978 3.962h12.683a3.97 3.97 0 003.977-3.962v-4.423h-8.306l-.02 2.845zm9.846 5.539h8.36V6.664h-8.36v18.96zm-32.036 0h8.347V6.658h-8.347v18.966zM34.07 6.658h-3.488V.65h-8.38v21.033c0 2.184 1.783 3.954 3.977 3.954h7.89V20.25h-3.487v-8.33h3.487V6.658zm51.427 18.966V12.196h3.978v13.427h8.328V10.625a3.97 3.97 0 00-3.978-3.962H77.17v18.96h8.326z"/></g><defs><clipPath id="clip0_1116_235"><path fill="#fff" transform="translate(0 .637)" d="M0 0h120v25H0z"/></clipPath></defs></svg>
